logo/ethereum-color.svg

<?xml version="1.0" encoding="UTF-8"?>
<svg width="256px" height="427px" viewBox="0 0 256 427" version="1.1" xmlns="http://www.w3.org/2000/svg" xmlns:xlink="http://www.w3.org/1999/xlink" preserveAspectRatio="xMidYMid">
    <title>Ethereum</title>
    <g>
				<path d="M256,241.649756 L128,426.8 L128,322.456624 L256,241.649756 Z M188.159483,306.730894 L147.070931,332.587626 L147.070931,366.060769 L188.159483,306.730894 Z" fill="#5A9DED"></path>
				<path d="M0,241.649756 L128,426.8 L128,322.456624 L0,241.649756 Z M67.8405172,306.730894 L108.929069,332.587626 L108.929069,366.060769 L67.8405172,306.730894 Z" fill="#53D3E0"></path>
				<polygon fill="#D995D1" points="144.237812 156.998107 229.012833 204.213138 232.017708 213.4 221.923682 222.212077 144.237812 178.854489"></polygon>
				<polygon fill="#A6E276" transform="translate(67.927760, 189.605092) scale(-1, 1) translate(-67.927760, -189.605092) " points="24.0378125 156.998107 108.812833 204.213138 111.817708 213.4 101.723682 222.212077 24.0378125 178.854489"></polygon>
				<path d="M128,0 L256,219.203353 L128,299.810807 L128,0 Z M146.90402,70.3166898 L146.90402,266.030518 L230.525714,213.4 L146.90402,70.3166898 Z" fill="#FF9C92"></path>
				<path d="M128,0 L0,219.203353 L128,299.810807 L128,0 Z M109.09598,70.3166898 L109.09598,266.030518 L25.4742863,213.4 L109.09598,70.3166898 Z" fill="#FFE94D"></path>
		</g>
</svg>

<svg viewBox="0 0 256 427" xmlns="http://www.w3.org/2000/svg"><path fill="#5A9DED" d="M256 241.64L128 426.79V322.44l128-80.81Zm-67.85 65.08l-41.09 25.85v33.47l41.08-59.33Z"/><path fill="#53D3E0" d="M0 241.64l128 185.15V322.44L0 241.63Zm67.84 65.08l41.08 25.85v33.47l-41.09-59.33Z"/><path fill="#D995D1" d="M144.23 156.99L229 204.2l3 9.18 -10.1 8.81 -77.69-43.36Z"/><path fill="#A6E276" d="M24.03 156.99l84.77 47.21 3 9.18 -10.1 8.81 -77.69-43.36Z" transform="matrix(-1 0 0 1 135.856 0)"/><path fill="#FF9C92" d="M128 0l128 219.2 -128 80.6V-.02Zm18.9 70.31v195.71l83.62-52.64 -83.63-143.09Z"/><path fill="#FFE94D" d="M128 0L0 219.2l128 80.6V-.02Zm-18.91 70.31v195.71l-83.63-52.64 83.62-143.09Z"/></svg>
